dist/icons/svgs/question-circle-outline.svg

<svg xmlns="http://www.w3.org/2000/svg" width="24" height="24" fill="currentcolor" class="icon-question-circle-outline" viewBox="0 0 24 24">
  <path d="M20.125 12C20.125 9.10938 18.5625 6.45312 16.0625 4.96875C13.5234 3.52344 10.4375 3.52344 7.9375 4.96875C5.39844 6.45312 3.875 9.10938 3.875 12C3.875 14.9297 5.39844 17.5859 7.9375 19.0703C10.4375 20.5156 13.5234 20.5156 16.0625 19.0703C18.5625 17.5859 20.125 14.9297 20.125 12ZM2 12C2 8.44531 3.875 5.16406 7 3.36719C10.0859 1.57031 13.875 1.57031 17 3.36719C20.0859 5.16406 22 8.44531 22 12C22 15.5938 20.0859 18.875 17 20.6719C13.875 22.4688 10.0859 22.4688 7 20.6719C3.875 18.875 2 15.5938 2 12ZM8.60156 8.48438C8.91406 7.58594 9.73438 7 10.6719 7H12.9375C14.3047 7 15.4375 8.13281 15.4375 9.5C15.4375 10.3594 14.9297 11.1797 14.1875 11.6094L12.9375 12.3516C12.8984 12.8594 12.5078 13.25 12 13.25C11.4531 13.25 11.0625 12.8594 11.0625 12.3125V11.8047C11.0625 11.4531 11.2188 11.1406 11.5312 10.9844L13.25 10.0078C13.4453 9.89062 13.5625 9.69531 13.5625 9.5C13.5625 9.14844 13.2891 8.91406 12.9375 8.91406H10.6719C10.5547 8.91406 10.4375 8.99219 10.3984 9.10938L10.3594 9.14844C10.2031 9.65625 9.65625 9.89062 9.1875 9.73438C8.67969 9.53906 8.44531 8.99219 8.60156 8.52344V8.48438ZM10.75 15.75C10.75 15.0859 11.2969 14.5 12 14.5C12.6641 14.5 13.25 15.0859 13.25 15.75C13.25 16.4531 12.6641 17 12 17C11.2969 17 10.75 16.4531 10.75 15.75Z"/>
</svg>

<svg xmlns="http://www.w3.org/2000/svg" width="24" height="24" fill="currentColor" class="icon-question-circle-outline" viewBox="0 0 24 24">
  <path d="M20.125 12c0-2.89-1.562-5.547-4.062-7.031-2.54-1.446-5.625-1.446-8.125 0C5.398 6.453 3.875 9.109 3.875 12a8.13 8.13 0 0 0 4.063 7.07c2.5 1.446 5.585 1.446 8.125 0 2.5-1.484 4.062-4.14 4.062-7.07M2 12a9.93 9.93 0 0 1 5-8.633c3.086-1.797 6.875-1.797 10 0 3.086 1.797 5 5.078 5 8.633 0 3.594-1.914 6.875-5 8.672-3.125 1.797-6.914 1.797-10 0C3.875 18.875 2 15.594 2 12m6.602-3.516A2.18 2.18 0 0 1 10.672 7h2.265c1.368 0 2.5 1.133 2.5 2.5 0 .86-.507 1.68-1.25 2.11l-1.25.742c-.039.507-.43.898-.937.898-.547 0-.937-.39-.937-.937v-.508c0-.352.156-.664.468-.82l1.719-.977a.61.61 0 0 0 .313-.508c0-.352-.274-.586-.626-.586h-2.265a.29.29 0 0 0-.274.195l-.039.04c-.156.507-.703.742-1.171.585a.976.976 0 0 1-.586-1.21zm2.148 7.266c0-.664.547-1.25 1.25-1.25.664 0 1.25.586 1.25 1.25 0 .703-.586 1.25-1.25 1.25-.703 0-1.25-.547-1.25-1.25"/>
</svg>
